X: 17
T: THE GROVE
B: "Old English Country Dances", Frank Kidson ed., William Reeves pub., London 1890
Z: 2010-9-26 John Chambers <jc:trillian.mit.edu>
M: 6/8
L: 1/8
K: Bb
|: BcB FDF | BdB cec | BcB FDF | GeA B3 :|
|: fdb fdB | egB AGF | Egg Dff | ecA B3 :|


%%sep 1 1 500

%%sep 1 1 500

